X: 11536
T: Eddie Smyth's
R: slide
M: 12/8
K: Dmajor
|:ABc|d2e fed e2d B2A|d2e fed e3 ABc|
d2e fed e2d B2A|a2g f2e d3:|
|:d2e|f2e d2A BdB A3|fed fed e3 d2e|
f2e d2A BdB A3|a2g f2e d3:|

